X:1
T:Title
%%score { 1 | ( 2 3 ) }
L:1/8
Q:1/4=100
M:2/4
K:Eb
V:1 treble nm="Grand Piano"
V:2 bass 
V:3 bass 
V:1
 G2 G[FA] | [GB]2 E2 | e2 dc | B4 | c2 B=A | BG E2 | G2 FE | [DF]4 | [EG]2 [EG][FA] | [GB]G E2 | %10
w: E.~S.~Lorenz * *||||||||||
 e2 dc | B4 | [Ge]2 de | FA c2 | B2 [DA][A,DF] | [G,E]4 | [DF]2 FG | B A3 | [EG]2 GA | c B3 | %20
w: ||||||||||
 [Ge]2 de | FA c2 | B2 [DA][DF] | E4 |] %24
w: ||||
V:2
 [E,B,E]2 [E,B,E][E,B,] | [E,E]2 [E,G,]2 | [E,CE]2 [E,B,E][E,A,E] | [E,G,E]4 | %4
 [E,A,E]2 [E,G,E][E,_G,E] | [E,G,E][E,B,E] [E,G,]2 | [E,B,E]2 [F,=A,C][F,A,C] | [B,,B,]4 | %8
 [E,B,]2 [E,B,][E,B,] | [E,E][E,B,E] [E,G,]2 | [E,CE]2 [E,B,E][E,A,E] | [E,G,E]4 | %12
 [E,B,]2[K:treble] [F,B,F][G,B,E] | z F [F,A,F]2 | [B,D]2 [B,,F,]B,, | E,4 | z2 DE | G F3 | z2 EF | %19
 A[K:treble] G3 | [E,B,]2 [F,B,F][G,B,E] | [A,C][A,CF][K:bass] [F,A,F]2 | [B,D]2 [B,,F,][B,,A,] | %23
 [E,G,]4 |] %24
V:3
 x4 | x4 | x4 | x4 | x4 | x4 | x4 | x4 | x4 | x4 | x4 | x4 | x2[K:treble] x2 | [A,C]2 z2 | x4 | %15
 x4 | B,,4- | B,,4 | E,,4- | E,,4[K:treble] | x4 | x2[K:bass] x2 | x4 | x4 |] %24

